!!!OTL: EIN STRAEUSSCHEN AM HUTE
!!!ARE: Europa, Mitteleuropa, Deutschland
!!!SCT: F0376
!!!YEM: Copyright 1995, estate of Helmut Schaffrath.
**kern
*ICvox
*Ivox
*M3/4
*k[f#c#g#]
*A:
{4e
=1
4.cc#
8b
4a
=2
4a
4e}
{4e
=3
4e
4g#
4a
=4
2b}
{4e
=5
4.dd
8cc#
4b
=6
4b
4g#}
{4e
=7
4e
4.cc#
8b
=8
4a
4r}
{8g#
8a
=9
4.b
8cc#
4b
=10
4.b
8cc#}
{4b
=11
4b
4.ee
8dd
=12
2cc#}
{8a
8b
=13
4.cc#
8b
4cc#
=14
4dd
4f#}
{4b
=15
4a
4cc#
4b
=16
2a}
{8g#
8a
=17
4.b
8cc#
4b
=18
4.b
8cc#}
{4b
=19
4b
4.ee
8dd
=20
2cc#}
{8a
8b
=21
4.cc#
8b
4cc#
=22
4dd
4f#}
{4b
=23
4a
4cc#
4b
=24
2a}
==
!!!AGN: Jugend - Lied, Wander - Lied, Moral
!!!ONB: ESAC (Essen Associative Code) Database: FINK
!!!AMT: simple triple
!!!AIN: vox
!!!EED: Helmut Schaffrath
!!!EEV: 1.0
*-
